assets/images/clients/PURINA.svg

<svg width="300" height="120" viewBox="0 0 300 120" fill="none" xmlns="http://www.w3.org/2000/svg">
<path d="M89.0469 72.598H213.211V50.4297H89.0469V72.598Z" fill="#949494"/>
<path d="M111.348 71.9502H212.614V51.0898H111.348V71.9502Z" fill="white"/>
<path d="M89.6992 71.9502H110.544V51.0898H89.6992V71.9502Z" fill="white"/>
<path d="M90.3594 71.2897H109.884V51.75H90.3594V71.2897Z" fill="white"/>
<path d="M120.041 56.092C120.476 55.993 120.845 55.942 121.127 55.942C121.641 55.942 122.1 56.059 122.499 56.2901C122.892 56.5181 123.201 56.8692 123.42 57.3313C123.642 57.8054 123.753 58.3275 123.753 58.8826C123.753 59.6777 123.522 60.3349 123.066 60.833C122.607 61.3311 122.079 61.5711 121.452 61.5711C121.272 61.5711 121.046 61.5561 120.788 61.5261C120.569 61.4961 120.314 61.4541 120.041 61.4061V56.092ZM123.831 55.1468C123.12 54.8918 122.142 54.7598 120.926 54.7598H115.816V55.5099H116.516C116.969 55.5099 117.296 55.6329 117.518 55.882C117.599 55.978 117.734 56.2901 117.734 57.3343V66.066C117.734 67.0172 117.632 67.3232 117.569 67.4222C117.362 67.7343 117.017 67.8873 116.516 67.8873H115.816V68.6405H121.956V67.8873H121.254C120.803 67.8873 120.479 67.7673 120.269 67.5183C120.182 67.4222 120.041 67.1072 120.041 66.066V62.3783C120.377 62.4503 120.71 62.5073 121.025 62.5493C121.41 62.5973 121.77 62.6213 122.097 62.6213C123.456 62.6213 124.527 62.2552 125.283 61.5291C126.039 60.803 126.421 59.8488 126.421 58.6965C126.421 57.8444 126.168 57.0942 125.667 56.4701C125.172 55.852 124.554 55.4079 123.831 55.1468Z" fill="#949494"/>
<path d="M139.713 54.6787H139.521V55.4289H140.214C140.665 55.4289 140.992 55.5489 141.211 55.8009C141.295 55.897 141.439 56.218 141.439 57.2532V62.7053C141.439 64.1036 141.313 65.0998 141.07 65.6729C140.833 66.228 140.377 66.6931 139.719 67.0561C139.056 67.4222 138.288 67.6083 137.439 67.6083C136.782 67.6083 136.221 67.4912 135.777 67.2602C135.333 67.0321 134.99 66.7411 134.756 66.393C134.519 66.0419 134.354 65.5379 134.264 64.8927C134.168 64.2326 134.12 63.6355 134.12 63.1224V57.2532C134.12 56.365 134.234 56.011 134.33 55.8699C134.528 55.5729 134.858 55.4289 135.339 55.4289H136.038V54.6787H129.898V55.4289H130.589C131.027 55.4289 131.342 55.5369 131.528 55.7499C131.66 55.9 131.816 56.284 131.816 57.2532V62.5193C131.816 64.1816 131.924 65.2888 132.146 65.9039C132.476 66.8011 133.046 67.5242 133.841 68.0553C134.633 68.5864 135.795 68.8535 137.301 68.8535C138.684 68.8535 139.8 68.5744 140.617 68.0223C141.433 67.4702 141.988 66.7921 142.27 66.0119C142.546 65.2498 142.684 64.1726 142.684 62.8073V57.3522C142.684 56.4161 142.792 56.113 142.858 56.014C143.107 55.6179 143.449 55.4289 143.908 55.4289H144.601V54.6787H144.409" fill="#949494"/>
<path d="M153.081 56.0711C153.639 55.9631 154.098 55.9061 154.431 55.9061C155.233 55.9061 155.884 56.1521 156.367 56.6382C156.853 57.1303 157.093 57.7544 157.093 58.5496C157.093 59.3567 156.796 60.0049 156.19 60.527C155.584 61.0491 154.656 61.3161 153.438 61.3161C153.387 61.3161 153.321 61.3131 153.219 61.3101C153.183 61.3101 153.135 61.3071 153.081 61.3071V56.0711ZM160.778 67.3563C160.346 67.0772 159.811 66.4951 159.193 65.628C159.19 65.625 157.165 62.8254 156.565 61.9943C157.594 61.7242 158.38 61.2951 158.899 60.71C159.469 60.0679 159.76 59.2967 159.76 58.4236C159.76 57.6044 159.505 56.8872 159.004 56.2931C158.509 55.708 157.897 55.2999 157.183 55.0809C156.487 54.8649 155.404 54.7568 153.96 54.7568H148.859V55.507H149.552C150.006 55.507 150.33 55.63 150.549 55.879C150.636 55.9751 150.777 56.2901 150.777 57.3313V66.063C150.777 67.0112 150.666 67.3173 150.603 67.4163C150.396 67.7314 150.054 67.8844 149.552 67.8844H148.859V68.6345H154.999V67.8844H154.284C153.84 67.8844 153.522 67.7644 153.309 67.5153C153.222 67.4193 153.081 67.1042 153.081 66.063V62.3303C153.114 62.3333 153.15 62.3363 153.183 62.3363C153.27 62.3393 153.363 62.3393 153.459 62.3393C153.651 62.3393 153.891 62.3333 154.167 62.3243L158.692 68.5565L158.749 68.6345H162.659V67.9054L162.485 67.8874C161.783 67.8094 161.21 67.6323 160.778 67.3563Z" fill="#949494"/>
<path d="M166.797 54.7627H166.605V55.5128H167.272C167.554 55.5128 167.827 55.5849 168.088 55.7289C168.25 55.8219 168.358 55.9329 168.406 56.0589C168.46 56.191 168.523 56.521 168.523 57.3372V66.0659C168.523 67.0651 168.397 67.3832 168.322 67.4822C168.112 67.7552 167.767 67.8903 167.272 67.8903H166.605V68.6404H172.745V67.8903H172.069C171.79 67.8903 171.52 67.8183 171.268 67.6772C171.1 67.5812 170.989 67.4702 170.941 67.3472C170.887 67.2151 170.827 66.8821 170.827 66.0659V57.3372C170.827 56.338 170.956 56.0229 171.031 55.9239C171.244 55.6479 171.583 55.5128 172.069 55.5128H172.745V54.7627H172.55" fill="#949494"/>
<path d="M192.893 55.3179V54.7598H187.81V55.5099H188.473C188.944 55.5099 189.289 55.6299 189.496 55.867C189.583 55.963 189.727 56.2781 189.727 57.3013V64.5297L181.749 54.8318L181.692 54.7598H177.746V55.5099H177.941C178.31 55.5099 178.586 55.5399 178.757 55.5939C179.126 55.7139 179.405 55.843 179.594 55.978C179.768 56.107 180.044 56.3921 180.402 56.8122V66.099C180.402 67.0412 180.288 67.3502 180.216 67.4522C180.014 67.7463 179.663 67.8873 179.147 67.8873H178.484V68.6375H183.567V67.8873H182.895C182.427 67.8873 182.082 67.7673 181.869 67.5303C181.788 67.4372 181.65 67.1252 181.65 66.099V58.3215L190.28 68.7875L190.337 68.8565H190.973V57.3013C190.973 56.3591 191.09 56.05 191.159 55.948C191.363 55.6539 191.708 55.5099 192.218 55.5099H192.893" fill="#949494"/>
<path d="M201.825 58.2308L203.773 62.9897H199.758L201.825 58.2308ZM209.567 67.8836C209.063 67.8536 208.669 67.7186 208.396 67.4786C208.108 67.2295 207.778 66.6624 207.418 65.7922L202.824 54.579L202.773 54.459H202.116L202.065 54.576L197.24 65.6542C196.841 66.6114 196.478 67.2475 196.16 67.5476C196.082 67.6226 195.851 67.7666 195.167 67.8866L195.008 67.9166V68.6338H199.629V67.8986L199.449 67.8836C198.693 67.8296 198.398 67.7126 198.287 67.6226C198.137 67.5056 198.065 67.3765 198.065 67.2295C198.065 67.0705 198.122 66.7494 198.389 66.1313C198.389 66.1313 199.068 64.574 199.257 64.1389H204.244C204.415 64.556 204.991 65.9603 204.991 65.9633C205.246 66.5604 205.375 66.9985 205.375 67.2595C205.375 67.4155 205.306 67.5476 205.162 67.6616C205.057 67.7456 204.799 67.8566 204.187 67.8836L204.001 67.8926V68.6338H209.75V67.8956" fill="#949494"/>
<path d="M89.6992 71.9502H110.544V51.0898H89.6992V71.9502Z" fill="#949494"/>
<path d="M90.4023 71.2057H109.756V51.834H90.4023V71.2057Z" fill="white"/>
<path d="M91.1875 58.5402H97.1407V52.5811H91.1875V58.5402Z" fill="#949494"/>
<path d="M103.098 58.5402H109.054V52.5811H103.098V58.5402Z" fill="#949494"/>
<path d="M97.1406 64.4994H103.097V58.54H97.1406V64.4994Z" fill="#949494"/>
<path d="M91.1875 70.4611H97.1407V64.499H91.1875V70.4611Z" fill="#949494"/>
<path d="M103.098 70.4611H109.054V64.499H103.098V70.4611Z" fill="#949494"/>
</svg>

<svg width="300" height="120" viewBox="0 0 300 120" fill="none" xmlns="http://www.w3.org/2000/svg"><path d="M89.047 72.598H213.21V50.43H89.047v22.168Z" fill="#949494"/><path d="M111.348 71.95h101.266V51.09H111.348v20.86Zm-21.648 0h20.844V51.09H89.699v20.86Z" fill="#fff"/><path d="M90.36 71.29h19.524V51.75H90.359v19.54Z" fill="#fff"/><path d="M120.041 56.092c.435-.099.804-.15 1.086-.15.514 0 .973.117 1.372.348.393.228.702.58.921 1.041.222.474.333.996.333 1.552 0 .795-.231 1.452-.687 1.95-.459.498-.987.738-1.614.738-.18 0-.406-.015-.664-.045a20.66 20.66 0 0 1-.747-.12v-5.314Zm3.79-.945c-.711-.255-1.689-.387-2.905-.387h-5.11v.75h.7c.453 0 .78.123 1.002.372.081.096.216.408.216 1.452v8.732c0 .951-.102 1.257-.165 1.356-.207.312-.552.465-1.053.465h-.7v.754h6.14v-.754h-.702c-.451 0-.775-.12-.985-.369-.087-.096-.228-.41-.228-1.452v-3.688c.336.072.669.13.984.171.385.048.745.072 1.072.072 1.359 0 2.43-.366 3.186-1.092.756-.726 1.138-1.68 1.138-2.833 0-.852-.253-1.602-.754-2.226a4.116 4.116 0 0 0-1.836-1.323Zm15.882-.468h-.192v.75h.693c.451 0 .778.12.997.372.084.096.228.417.228 1.452v5.452c0 1.399-.126 2.395-.369 2.968-.237.555-.693 1.02-1.351 1.383-.663.366-1.431.552-2.28.552-.657 0-1.218-.117-1.662-.348-.444-.228-.787-.519-1.021-.867-.237-.351-.402-.855-.492-1.5a12.516 12.516 0 0 1-.144-1.77v-5.87c0-.888.114-1.242.21-1.383.198-.297.528-.441 1.009-.441h.699v-.75h-6.14v.75h.691c.438 0 .753.108.939.32.132.151.288.535.288 1.504v5.266c0 1.663.108 2.77.33 3.385.33.897.9 1.62 1.695 2.151.792.531 1.954.798 3.46.798 1.383 0 2.499-.279 3.316-.83.816-.553 1.371-1.23 1.653-2.011.276-.762.414-1.84.414-3.205v-5.455c0-.936.108-1.239.174-1.338.249-.396.591-.585 1.05-.585h.693v-.75h-.192m8.672 1.392c.558-.108 1.017-.165 1.35-.165.802 0 1.453.246 1.936.732.486.492.726 1.116.726 1.912 0 .807-.297 1.455-.903 1.977-.606.522-1.534.79-2.752.79-.051 0-.117-.004-.219-.007-.036 0-.084-.003-.138-.003v-5.236Zm7.697 11.285c-.432-.279-.967-.86-1.585-1.728l-2.628-3.634c1.029-.27 1.815-.699 2.334-1.284a3.35 3.35 0 0 0 .861-2.286c0-.82-.255-1.537-.756-2.13a3.823 3.823 0 0 0-1.821-1.213c-.696-.216-1.779-.324-3.223-.324h-5.101v.75h.693c.454 0 .778.123.997.372.087.096.228.411.228 1.452v8.732c0 .948-.111 1.254-.174 1.353-.207.315-.549.468-1.051.468h-.693v.75h6.14v-.75h-.715c-.444 0-.762-.12-.975-.369-.087-.096-.228-.41-.228-1.452V62.33c.033.003.069.006.102.006.087.003.18.003.276.003.192 0 .432-.006.708-.015l4.525 6.233.057.078h3.91v-.73l-.174-.018c-.702-.078-1.275-.255-1.707-.53Zm6.019-12.593h-.192v.75h.667c.282 0 .555.072.816.216.162.093.27.204.318.33.054.132.117.462.117 1.278v8.729c0 1-.126 1.317-.201 1.416-.21.273-.555.408-1.05.408h-.667v.75h6.14v-.75h-.676c-.279 0-.549-.072-.801-.213-.168-.096-.279-.207-.327-.33-.054-.132-.114-.465-.114-1.281v-8.729c0-.999.129-1.314.204-1.413.213-.276.552-.411 1.038-.411h.676v-.75h-.195m20.343.555v-.558h-5.083v.75h.663c.471 0 .816.12 1.023.357.087.096.231.411.231 1.434v7.229l-7.978-9.698-.057-.072h-3.946v.75h.195c.369 0 .645.03.816.084.369.12.648.249.837.384.174.129.45.414.808.834V66.1c0 .942-.114 1.251-.186 1.353-.202.294-.553.435-1.069.435h-.663v.75h5.083v-.75h-.672c-.468 0-.813-.12-1.026-.357-.081-.093-.219-.405-.219-1.431v-7.778l8.63 10.466.057.07h.636V57.3c0-.942.117-1.251.186-1.353.204-.294.549-.438 1.059-.438h.675m8.932 2.721 1.948 4.76h-4.015l2.067-4.76Zm7.742 9.654c-.504-.03-.898-.165-1.171-.405-.288-.25-.618-.817-.978-1.687l-4.594-11.213-.051-.12h-.657l-.051.117-4.825 11.078c-.399.957-.762 1.594-1.08 1.894-.078.075-.309.219-.993.339l-.159.03v.717h4.621v-.735l-.18-.015c-.756-.054-1.051-.171-1.162-.261-.15-.117-.222-.247-.222-.394 0-.159.057-.48.324-1.098l.868-1.992h4.987c.171.417.747 1.821.747 1.824.255.597.384 1.036.384 1.297a.497.497 0 0 1-.213.402c-.105.084-.363.195-.975.222l-.186.009v.74h5.749v-.737M89.7 71.95h20.844V51.09H89.699v20.86Z" fill="#949494"/><path d="M90.402 71.206h19.354V51.834H90.402v19.372Z" fill="#fff"/><path d="M91.188 58.54h5.953v-5.959h-5.954v5.96Zm11.91 0h5.956v-5.959h-5.956v5.96Z" fill="#949494"/><path d="M97.14 64.5h5.957v-5.96h-5.956v5.96Zm-5.952 5.961h5.953V64.5h-5.954v5.962Zm11.91 0h5.956V64.5h-5.956v5.962Z" fill="#949494"/></svg>
